packages/calcite-ui-icons/icons/select-root-chart-nodes-32.svg

<?xml version="1.0" encoding="UTF-8"?><svg id="icons" xmlns="http://www.w3.org/2000/svg" viewBox="0 0 32 32"><defs><style>.cls-1{fill:none;}</style></defs><path d="M16.5,14l2.5,2.5-2.5,2.5-2.5-2.5,2.5-2.5ZM16.5,4.79297l11.70703,11.70703-11.70703,11.70703-11.70703-11.70703,11.70703-11.70703ZM26.79297,16.5l-10.29297-10.29297-10.29297,10.29297,10.29297,10.29297,10.29297-10.29297ZM8,3h-2v1h2v-1ZM11,3h-2v1h2v-1ZM14,3h-2v1h2v-1ZM21,3h-2v1h2v-1ZM24,3h-2v1h2v-1ZM27,3h-2v1h2v-1ZM18,3h-3v1h3v-1ZM6,30h2v-1h-2v1ZM9,30h2v-1h-2v1ZM12,30h2v-1h-2v1ZM19,30h2v-1h-2v1ZM22,30h2v-1h-2v1ZM25,30h2v-1h-2v1ZM15,30h3v-1h-3v1ZM29,3h-1v1h1v1h1v-2h-1ZM29,8h1v-2h-1v2ZM29,11h1v-2h-1v2ZM29,14h1v-2h-1v2ZM29,21h1v-2h-1v2ZM29,24h1v-2h-1v2ZM29,27h1v-2h-1v2ZM29,18h1v-3h-1v3ZM4,6h-1v2h1v-2ZM4,9h-1v2h1v-2ZM4,12h-1v2h1v-2ZM4,19h-1v2h1v-2ZM4,22h-1v2h1v-2ZM4,25h-1v2h1v-2ZM4,15h-1v3h1v-3ZM29,29h-1v1h2v-2h-1v1ZM4,28h-1v2h2v-1h-1v-1ZM4,4h1v-1h-2v2h1v-1Z"/><rect class="cls-1" width="32" height="32"/></svg>

<svg xmlns="http://www.w3.org/2000/svg" viewBox="0 0 32 32"><path d="M16.5 14l2.5 2.5-2.5 2.5-2.5-2.5 2.5-2.5zm0-9.207L28.207 16.5 16.5 28.207 4.793 16.5 16.5 4.793zM26.793 16.5L16.5 6.207 6.207 16.5 16.5 26.793 26.793 16.5zM8 3H6v1h2V3zm3 0H9v1h2V3zm3 0h-2v1h2V3zm7 0h-2v1h2V3zm3 0h-2v1h2V3zm3 0h-2v1h2V3zm-9 0h-3v1h3V3zM6 30h2v-1H6v1zm3 0h2v-1H9v1zm3 0h2v-1h-2v1zm7 0h2v-1h-2v1zm3 0h2v-1h-2v1zm3 0h2v-1h-2v1zm-10 0h3v-1h-3v1zM29 3h-1v1h1v1h1V3h-1zm0 5h1V6h-1v2zm0 3h1V9h-1v2zm0 3h1v-2h-1v2zm0 7h1v-2h-1v2zm0 3h1v-2h-1v2zm0 3h1v-2h-1v2zm0-9h1v-3h-1v3zM4 6H3v2h1V6zm0 3H3v2h1V9zm0 3H3v2h1v-2zm0 7H3v2h1v-2zm0 3H3v2h1v-2zm0 3H3v2h1v-2zm0-10H3v3h1v-3zm25 14h-1v1h2v-2h-1v1zM4 28H3v2h2v-1H4v-1zM4 4h1V3H3v2h1V4z"/><path fill="none" d="M0 0h32v32H0z"/></svg>
